cookie-law-info/lite/admin/dist/img/tooltip.svg

<svg width="12" height="12" viewBox="0 0 120 120" fill="none" xmlns="http://www.w3.org/2000/svg"><path d="M60 0C26.865 0 0 26.865 0 60c0 33.135 26.865 60 60 60 33.135 0 60-26.865 60-60 0-33.135-26.865-60-60-60zm-.005 28.75c3.45 0 6.255 2.8 6.255 6.25s-2.805 6.25-6.255 6.25c-3.45 0-6.245-2.8-6.245-6.25s2.795-6.25 6.245-6.25zM70 90H50v-5c2.42-.895 5-1.005 5-3.675V58.99c0-2.67-2.58-3.09-5-3.985v-5h15V81.33c0 2.675 2.585 2.79 5 3.675V90z" fill="#A6A8B1"/></svg>

<svg
	width="12"
    height="12"
    viewBox="0 0 120 120"
    fill="none"
    xmlns="http://www.w3.org/2000/svg"
	>
		<path
			d="M60 0C26.865 0 0 26.865 0 60C0 93.135 26.865 120 60 120C93.135 120 120 93.135 120 60C120 26.865 93.135 0 60 0ZM59.995 28.75C63.445 28.75 66.25 31.55 66.25 35C66.25 38.45 63.445 41.25 59.995 41.25C56.545 41.25 53.75 38.45 53.75 35C53.75 31.55 56.545 28.75 59.995 28.75ZM70 90H50V85C52.42 84.105 55 83.995 55 81.325V58.99C55 56.32 52.42 55.9 50 55.005V50.005H65V81.33C65 84.005 67.585 84.12 70 85.005V90Z"
			fill="#A6A8B1"
		/>
	</svg>
